icon-themes/breeze_svg/cmd/lc_charfontname.svg

<svg viewBox="0 0 24 24" xmlns="http://www.w3.org/2000/svg"><path d="m10.910156 5-3.3144529 9.59375-.1230469.40625-1.4726562 4h1.6582031l1.625-4.4375h5.4335939l1.625 4.4375h1.658203l-1.472656-4-.123047-.40625-3.314453-9.59375h-.214844-1.75zm1.105469 1.9375 2.179687 6.34375h-4.3906245z" fill="#4d4d4d"/></svg>

<svg xmlns="http://www.w3.org/2000/svg" viewBox="0 0 24 24">
 <path 
     style="fill:#4d4d4d" 
     d="M 10.910156 5 L 7.5957031 14.59375 L 7.4726562 15 L 6 19 L 7.6582031 19 L 9.2832031 14.5625 L 14.716797 14.5625 L 16.341797 19 L 18 19 L 16.527344 15 L 16.404297 14.59375 L 13.089844 5 L 12.875 5 L 11.125 5 L 10.910156 5 z M 12.015625 6.9375 L 14.195312 13.28125 L 9.8046875 13.28125 L 12.015625 6.9375 z "
     />
 </svg>
